.icons/Gruvbox-Plus-Dark/apps/16/soulseek.svg

<svg width="16" height="16" version="1.1" xmlns="http://www.w3.org/2000/svg">
  <defs>
    <style type="text/css" id="current-color-scheme">.ColorScheme-Text { color:#ebdbb2; } .ColorScheme-Highlight { color:#458588; }</style>
  </defs>
  <path class="ColorScheme-Text" fill="currentColor" d="m6.189 14.8c-0.325-0.09-0.762-0.253-1.044-0.85-0.386-0.82-0.385-0.803-0.047-1.304 0.469-0.694 1.316-1.929 1.316-2.266 0-0.212-0.21-0.38-0.732-0.582-1.124-0.436-2.648-1.174-3.434-1.753-0.962-0.71-1.86-2.041-2.14-2.968-0.197-0.652-0.132-0.793 0.257-0.554 2.038 1.171 2.675 1.354 4.695 1.537 1.255-0.055 2.235-0.796 2.186-1.68-0.041-0.666-0.481-1.233-0.749-2.086-0.15-0.481-0.066-0.649-0.039-0.834 0.019-0.127 0.068-0.244 0.108-0.26 0.222 0.126 0.37 0.345 0.584 0.429 0.505 0.2 1.039 0.202 1.576 0.438 0.549 0.281 0.793 0.562 0.915 1.065 0.088 0.362 0.328 0.605 0.576 0.847 0.118 0.115 0.214 0.238 0.214 0.275 0 0.186-0.607 0.152-1.106 0.01-0.439-0.124-0.564 0.432-0.519 0.834 0.067 1.067 1.457 0.869 2.647 0.962 0.992 0.077 2.685-0.053 3.972-0.605 0.269-0.116 0.528-0.203 0.575-0.193-0.439 1.88-2.326 3.48-3.956 4.165-0.804 0.325-1.966 0.696-2.315 0.739-0.867 0.108-1.164 0.221-1.304 0.499-0.16 0.316-0.395 1.771-0.482 2.878-0.208 0.926-1.154 1.25-1.754 1.257z"/>
</svg>

<svg xmlns="http://www.w3.org/2000/svg" style="isolation:isolate" width="16" height="16" viewBox="0 0 16 16">
 <defs>
  <style id="current-color-scheme" type="text/css">
   .ColorScheme-Text { color:#ebdbb2; } .ColorScheme-Highlight { color:#458588; }
  </style>
  <linearGradient id="arrongin" x1="0%" x2="0%" y1="0%" y2="100%">
   <stop offset="0%" style="stop-color:#d79921; stop-opacity:1"/>
   <stop offset="100%" style="stop-color:#b57614; stop-opacity:1"/>
  </linearGradient>
  <linearGradient id="aurora" x1="0%" x2="0%" y1="0%" y2="100%">
   <stop offset="0%" style="stop-color:#83a598; stop-opacity:1"/>
   <stop offset="100%" style="stop-color:#b16286; stop-opacity:1"/>
  </linearGradient>
  <linearGradient id="fitdance" x1="0%" x2="0%" y1="0%" y2="100%">
   <stop offset="0%" style="stop-color:#8ec07c; stop-opacity:1"/>
   <stop offset="100%" style="stop-color:#458588; stop-opacity:1"/>
  </linearGradient>
  <linearGradient id="oomox" x1="0%" x2="0%" y1="0%" y2="100%">
   <stop offset="0%" style="stop-color:#458588; stop-opacity:1"/>
   <stop offset="100%" style="stop-color:#928374; stop-opacity:1"/>
  </linearGradient>
  <linearGradient id="rainblue" x1="0%" x2="0%" y1="0%" y2="100%">
   <stop offset="0%" style="stop-color:#b8bb26; stop-opacity:1"/>
   <stop offset="100%" style="stop-color:#076678; stop-opacity:1"/>
  </linearGradient>
  <linearGradient id="sunrise" x1="0%" x2="0%" y1="0%" y2="100%">
   <stop offset="0%" style="stop-color: #fe8019; stop-opacity:1"/>
   <stop offset="100%" style="stop-color: #fabd2f; stop-opacity:1"/>
  </linearGradient>
  <linearGradient id="telinkrin" x1="0%" x2="0%" y1="0%" y2="100%">
   <stop offset="0%" style="stop-color: #83a598; stop-opacity:1"/>
   <stop offset="100%" style="stop-color: #83a598; stop-opacity:1"/>
  </linearGradient>
  <linearGradient id="60spsycho" x1="0%" x2="0%" y1="0%" y2="100%">
   <stop offset="0%" style="stop-color: #fb4934; stop-opacity:1"/>
   <stop offset="25%" style="stop-color: #fabd2f; stop-opacity:1"/>
   <stop offset="50%" style="stop-color: #fe8019; stop-opacity:1"/>
   <stop offset="100%" style="stop-color: #689d6a; stop-opacity:1"/>
  </linearGradient>
  <linearGradient id="90ssummer" x1="0%" x2="0%" y1="0%" y2="100%">
   <stop offset="0%" style="stop-color: #b16286; stop-opacity:1"/>
   <stop offset="20%" style="stop-color: #8ec07c; stop-opacity:1"/>
   <stop offset="50%" style="stop-color: #fabd2f; stop-opacity:1"/>
   <stop offset="100%" style="stop-color: #458588; stop-opacity:1"/>
  </linearGradient>
  <linearGradient id="cyberneon" x1="0%" x2="0%" y1="0%" y2="100%">
    <stop offset="0" style="stop-color:#83a598; stop-opacity:1"/>
    <stop offset="1" style="stop-color:#b16286; stop-opacity:1"/>
  </linearGradient>
 </defs>
 <path style="fill:currentColor" class="ColorScheme-Text" d="M 6.189 14.8 C 5.864 14.71 5.427 14.547 5.145 13.95 C 4.759 13.13 4.76 13.147 5.098 12.646 C 5.567 11.952 6.414 10.717 6.414 10.38 C 6.414 10.168 6.204 10 5.682 9.798 C 4.558 9.362 3.034 8.624 2.248 8.045 C 1.286 7.335 0.388 6.004 0.108 5.077 C -0.089 4.425 -0.024 4.284 0.365 4.523 C 2.403 5.694 3.04 5.877 5.06 6.06 C 6.315 6.005 7.295 5.264 7.246 4.38 C 7.205 3.714 6.765 3.147 6.497 2.294 C 6.347 1.813 6.431 1.645 6.458 1.46 C 6.477 1.333 6.526 1.216 6.566 1.2 C 6.788 1.326 6.936 1.545 7.15 1.629 C 7.655 1.829 8.189 1.831 8.726 2.067 C 9.275 2.348 9.519 2.629 9.641 3.132 C 9.729 3.494 9.969 3.737 10.217 3.979 C 10.335 4.094 10.431 4.217 10.431 4.254 C 10.431 4.44 9.824 4.406 9.325 4.264 C 8.886 4.14 8.761 4.696 8.806 5.098 C 8.873 6.165 10.263 5.967 11.453 6.06 C 12.445 6.137 14.138 6.007 15.425 5.455 C 15.694 5.339 15.953 5.252 16 5.262 C 15.561 7.142 13.674 8.742 12.044 9.427 C 11.24 9.752 10.078 10.123 9.729 10.166 C 8.862 10.274 8.565 10.387 8.425 10.665 C 8.265 10.981 8.03 12.436 7.943 13.543 C 7.735 14.469 6.789 14.793 6.189 14.8 L 6.189 14.8 Z"/>
</svg>
